!!!!SEGMENT: Ser2005-Girum_celi.krn
!!!id: Ser2005
!!!AGN: Motet
!!!voices: 4
!!!COM: Claudin de Sermisy
!!!OTL: Girum celi
**kern	**kern	**kern	**kern
*part4	*part3	*part2	*part1
*staff4	*staff3	*staff2	*staff1
*I"Bassus	*I"Tenor	*I"Altus	*I"Superius
*I'B	*I'T	*I'A	*I'S
*clefF4	*clefGv2	*clefGv2	*clefG2
*k[]	*k[]	*k[]	*k[]
*C:	*C:	*C:	*C:
*M2/1	*M2/1	*M2/1	*M2/1
*met(C|)	*met(C|)	*met(C|)	*met(C|)
=1	=1	=1	=1
!!section: Girum celi
!!!OMD: Girum celi
0r	0r	0r	0e
=2	=2	=2	=2
0r	0r	0r	1g
.	.	.	[1e
=3	=3	=3	=3
0r	0r	0A	1e]
.	.	.	1c
=4	=4	=4	=4
0r	0r	1c	2r
.	.	.	1e
.	.	[1A	.
.	.	.	2e
=5	=5	=5	=5
0r	0r	1A]	1e
.	.	1G	[1g
=6	=6	=6	=6
0r	0r	1c	1g]
.	.	2c	1g
.	.	[2c	.
=7	=7	=7	=7
0r	0r	2c]	2.a
.	.	2c	.
.	.	.	4g
.	.	1d	4f
.	.	.	4e
.	.	.	[2a
=8	=8	=8	=8
0E	0r	1e	2a]
.	.	.	4g
.	.	.	4f
.	.	2r	2.g
.	.	[2B	.
.	.	.	4f
=9	=9	=9	=9
1G	0r	2B]	2e
.	.	2B	2d
1E	.	1B	2e
.	.	.	[2g
=10	=10	=10	=10
0D	0A	1d	2g]
.	.	.	4f
.	.	.	4e
.	.	1d	2.f
.	.	.	4g
=11	=11	=11	=11
0r	1c	2.e	2a
.	.	.	1g
.	.	4d	.
.	1A	[1c	.
.	.	.	2f#i
=12	=12	=12	=12
1.C	1G	1c]	1g
.	2r	2r	2r
2C	[2G	[2c	[2e
=13	=13	=13	=13
1C	2G]	2c]	2e]
.	2G	2c	2e
1C	1G	1c	1e
=14	=14	=14	=14
1D	1F	2.A	2f
.	.	.	2.a
.	.	4B	.
1E	1G	2c	.
.	.	.	4g
.	.	2B	[2g
=15	=15	=15	=15
1r	1A	2.c	2g]
.	.	.	2f#i
.	.	4d	.
2r	2r	2.e	1g
[2E	[2G	.	.
.	.	8dL	.
.	.	8cJ	.
=16	=16	=16	=16
2E]	2G]	0B	0e
2E	2G	.	.
2E	2G	.	.
2E	2G	.	.
=17	=17	=17	=17
4F	2A	0r	0r
4E	.	.	.
4D	1c	.	.
4C	.	.	.
1D	.	.	.
.	2B	.	.
=18	=18	=18	=18
0C	1c	0r	0r
.	2r	.	.
.	[2G	.	.
=19	=19	=19	=19
2r	2G]	0r	0r
1C	2E	.	.
.	2G	.	.
2AA	2A	.	.
=20	=20	=20	=20
2.C	2G	2r	2r
.	1c	1e	1g
4D	.	.	.
1E	.	.	.
.	2B	2e	2g
=21	=21	=21	=21
0r	1c	2e	2g
.	.	2e	2g
.	2F	4f	2a
.	.	4e	.
.	2A	4d	[2cc
.	.	4c	.
=22	=22	=22	=22
0r	1G	1d	2cc]
.	.	.	2b
.	1r	[1c	1cc
=23	=23	=23	=23
0r	0r	1c]	2r
.	.	.	1g
.	.	2r	.
.	.	[2c	2e
=24	=24	=24	=24
0r	1r	2c]	2g
.	.	2A	2a
.	2r	2c	2.g
.	[2G	[2B	.
.	.	.	4f
=25	=25	=25	=25
2r	2G]	2B]	2d
1C	2E	2G	2.e
.	2G	2.c	.
.	.	.	4c
2AA	2A	.	[2cc
.	.	4d	.
=26	=26	=26	=26
2.C	2G	4e	4cc]
.	.	4f	4b
.	2c	1e	2a
4D	.	.	.
2E	2B	.	2g
2F	2A	2c	2cc
=27	=27	=27	=27
2D	4d	2f	2b
.	4c	.	.
2F	4B	2d	1a
.	4A	.	.
1E	1B	1e	.
.	.	.	2g#i
=28	=28	=28	=28
[0AA	0A	0c	1a
.	.	.	2r
.	.	.	2a
=29	=29	=29	=29
1AA]	0r	1A	1cc
1r	.	[1d	2b
.	.	.	[2a
=30	=30	=30	=30
1D	0r	1d]	4a]
.	.	.	4g
.	.	.	2f
1A	.	2.c	2.e
.	.	4d	4f
=31	=31	=31	=31
2G	1r	2e	2g
2.F	.	2f	1a
.	1A	2c	.
4E	.	.	.
2D	.	2d	2f
=32	=32	=32	=32
1C	1c	1e	1g
[1D	2B	2r	1r
.	[2A	2d	.
=33	=33	=33	=33
1D]	2A]	1f	1a
.	2F	.	.
1C	[1G	1e	1cc
=34	=34	=34	=34
0r	1G]	2d	1b
.	.	1d	.
.	1r	.	2a
.	.	2d	[2a
=35	=35	=35	=35
1AA	1r	2.c	2a]
.	.	.	2a
.	.	4d	.
1C	2r	1e	1g
.	2E	.	.
=36	=36	=36	=36
1BB	1G	2d	0r
.	.	2B	.
1AA	1F	2.c	.
.	.	8BL	.
.	.	8AJ	.
=37	=37	=37	=37
2.C	1E	0G	2r
.	.	.	2e
4D	.	.	.
4E	2.G	.	2e
4F	.	.	.
[2G	.	.	2d
.	4A	.	.
=38	=38	=38	=38
2G]	4B	0r	2e
.	4c	.	.
2F	1d	.	1f
2D	.	.	.
2E	2c	.	2e
=39	=39	=39	=39
1F	2A	2r	1c
.	2c	2A	.
1E	1G	1B	2r
.	.	.	2e
=40	=40	=40	=40
2r	1A	2c	1f
2D	.	1d	.
1E	1r	.	2g
.	.	[2c	2e
=41	=41	=41	=41
2F	1r	2c]	1d
2G	.	2B	.
2E	2r	1c	1c
2F	2A	.	.
=42	=42	=42	=42
2D	1B	2d	2r
1E	.	1G	2g
.	2c	.	2e
2D	[2d	[2A	2f
=43	=43	=43	=43
2E	4d]	2A]	2g
.	4c	.	.
2C	1c	1G	2e
1D	.	.	1f
.	2B	2F	.
=44	=44	=44	=44
0C	0c	1G	[0e
.	.	2r	.
.	.	2G	.
=45	=45	=45	=45
2r	0r	1A	1e]
1A	.	.	.
.	.	1c	2r
2E	.	.	[2e
=46	=46	=46	=46
1G	2r	2.B	2e]
.	2G	.	2d
.	.	4c	.
1D	1A	1d	1f
=47	=47	=47	=47
1r	1c	2r	4e
.	.	.	4f
.	.	1e	4g
.	.	.	4a
1G	1B	.	4b
.	.	.	4cc
.	.	2d	[2dd
=48	=48	=48	=48
2D	2r	1f	4dd]
.	.	.	4cc
2F	1A	.	2.cc
2.C	.	[1e	.
.	.	.	4b
.	2G	.	4cc
4D	.	.	8bL
.	.	.	8aJ
=49	=49	=49	=49
[0E	1c	1e]	1g
.	[1B	2r	2r
.	.	[2e	[2g
=50	=50	=50	=50
0E]	0B]	2e]	2g]
.	.	2e	2g
.	.	2e	2g
.	.	2e	2g
=51	=51	=51	=51
0r	0r	2d	2a
.	.	2c	2cc
.	.	1d	2b
.	.	.	[2a
=52	=52	=52	=52
1.E	1.B	0e	2a]
.	.	.	4g
.	.	.	4f
.	.	.	[1g
2E	2B	.	.
=53	=53	=53	=53
2E	2B	0r	1g]
2E	2G	.	.
2D	2A	.	1r
4C	[2c	.	.
4D	.	.	.
=54	=54	=54	=54
4E	2c]	0r	2r
4F	.	.	.
2G	4B	.	1g
.	4A	.	.
2E	2B	.	.
2A	2c	.	2a
=55	=55	=55	=55
2G	2d	2r	2b
2E	2e	1c	2g
1F	2.A	.	1a
.	.	2d	.
.	4B	.	.
=56	=56	=56	=56
1C	1c	2e	2g
.	.	2c	2cc
1r	1r	1d	2b
.	.	.	[2a
=57	=57	=57	=57
0r	0r	2.c	2a]
.	.	.	4g
.	.	4d	4f
.	.	2e	2g
.	.	[2f	[2a
=58	=58	=58	=58
0r	2r	2f]	4a]
.	.	.	4b
.	1A	1e	1cc
.	2B	2d	4b
.	.	.	4a
=59	=59	=59	=59
2r	2c	1e	1g
1C	2G	.	.
.	1A	1r	1r
2D	.	.	.
=60	=60	=60	=60
2E	2G	0r	0r
2C	2c	.	.
1D	2B	.	.
.	2A	.	.
=61	=61	=61	=61
2C	2.c	2r	0r
2F	.	1c	.
.	4B	.	.
2E	4G	.	.
.	4A	.	.
2D	[2B	2d	.
=62	=62	=62	=62
2C	4B]	2e	0r
.	4A	.	.
2AA	1A	2c	.
1BB	.	1d	.
.	2G#i	.	.
=63	=63	=63	=63
1AA	1A	1c	2r
.	.	.	1a
1D	1F	2d	.
.	.	[2f	2b
=64	=64	=64	=64
2C	2r	2f]	2cc
2C	1c	1e	2g
1F	.	.	1a
.	2A	2d	.
=65	=65	=65	=65
2E	2B	1e	2g
4D	2c	.	1g
4C	.	.	.
1D	1A	1d	.
.	.	.	2f#i
=66	=66	=66	=66
2.E	2G	2B	2.g
.	2c	2e	.
4F	.	.	4a
2G	2B	2d	2b
2E	2G	2e	[2cc
=67	=67	=67	=67
1F	1A	2c	4cc]
.	.	.	4b
.	.	2d	1a
1E	1B	1e	.
.	.	.	2g#i
=68	=68	=68	=68
0AAl	0Al	0cl	0al
=69||	=69||	=69||	=69||
*M2/1	*M2/1	*M2/1	*M2/1
*met(C|)	*met(C|)	*met(C|)	*met(C|)
!!section: Ego, in altissimis
!!!OMD: Ego, in altissimis
0C	0G	0c	0e
=70	=70	=70	=70
0C	0G	0c	0e
=71	=71	=71	=71
1r	1.G	0r	0r
[1C	.	.	.
.	2G	.	.
=72	=72	=72	=72
2C]	2.A	0r	1r
2D	.	.	.
.	4B	.	.
2.E	[1c	.	1g
4F	.	.	.
=73	=73	=73	=73
0G	2c]	0d	0g
.	4B	.	.
.	4A	.	.
.	1B	.	.
=74	=74	=74	=74
0C	1c	1e	1.g
.	1r	[1c	.
.	.	.	2g
=75	=75	=75	=75
1F	0r	2c]	2.a
.	.	2d	.
.	.	.	4b
[1C	.	2.e	[1cc
.	.	4f	.
=76	=76	=76	=76
2C]	1.G	1.g	1cc]
2D	.	.	.
2E	.	.	[1b
2F	2A	4f	.
.	.	4e	.
=77	=77	=77	=77
1G	2.B	2d	1b]
.	.	1g	.
.	4c	.	.
1r	1d	.	1a
.	.	2f#i	.
=78	=78	=78	=78
1.G	2B	2.g	0g
.	1c	.	.
.	.	8fL	.
.	.	8eJ	.
.	.	1d	.
2G	2B	.	.
=79	=79	=79	=79
2.A	2c	0c	0e
.	1A	.	.
4B	.	.	.
2c	.	.	.
4C	4G	.	.
4D	4F	.	.
=80	=80	=80	=80
4E	2G	0r	1r
4F	.	.	.
1G	1B	.	.
.	.	.	[1d
4F	4A	.	.
4E	4G	.	.
=81	=81	=81	=81
2F	2A	1r	2d]
2G	2B	.	2d
1C	[1c	2r	2.e
.	.	[2G	.
.	.	.	4f
=82	=82	=82	=82
1E	1c]	2G]	2g
.	.	2G	2e
1D	1d	2.A	1f
.	.	4B	.
=83	=83	=83	=83
2.C	2G	2.c	1e
.	2c	.	.
4D	.	4B	.
2E	2B	2G	2r
2AA	2A	2c	[2e
=84	=84	=84	=84
2E	2G	2B	2e]
2F	1A	2A	2d
1E	.	1B	4e
.	.	.	4f
.	2G	.	4g
.	.	.	4e
=85	=85	=85	=85
1AA	2.A	1c	2f
.	.	.	2.e
.	4B	.	.
1r	1c	2r	.
.	.	.	4f
.	.	[2e	4g
.	.	.	4a
=86	=86	=86	=86
0r	1G	2e]	4b
.	.	.	4cc
.	.	2d	2dd
.	1r	4e	4g
.	.	4f	4a
.	.	4g	4b
.	.	4e	4g
=87	=87	=87	=87
0r	2r	2f	4a
.	.	.	4b
.	1A	2c	1cc
.	.	1d	.
.	2G	.	2b
=88	=88	=88	=88
2r	4A	1c	2cc
.	4B	.	.
1E	4c	.	1g
.	4A	.	.
.	4B	1r	.
.	4c	.	.
2D	2d	.	2f
=89	=89	=89	=89
4E	4G	0r	1g
4F	4A	.	.
4G	4B	.	.
4E	4G	.	.
2F	2A	.	1r
4C	[2c	.	.
4D	.	.	.
=90	=90	=90	=90
4E	2c]	1r	0r
4F	.	.	.
1G	2B	.	.
.	1A	2r	.
2F#i	.	[2d	.
=91	=91	=91	=91
1G	1B	2d]	2r
.	.	2d	1g
1C	1r	1e	.
.	.	.	2g
=92	=92	=92	=92
0r	1r	2c	1a
.	.	2.d	.
.	2r	.	1f
.	.	4c	.
.	[2d	4d	.
.	.	4e	.
=93	=93	=93	=93
0r	2d]	1f	1a
.	2d	.	.
.	1e	2e	1g
.	.	4c	.
.	.	4d	.
=94	=94	=94	=94
2r	2c	4e	1a
.	.	4c	.
1D	2.d	2.f	.
.	.	.	1r
.	4c	4e	.
2D	4B	4d	.
.	4A	4c	.
=95	=95	=95	=95
1E	2G	2B	0r
.	2.c	2G	.
2C	.	1A	.
.	4B	.	.
(2D	4A	.	.
.	4G	.	.
=96	=96	=96	=96
4D)	2A	0r	0r
4C	.	.	.
4BB	2.d	.	.
4AA	.	.	.
2GG	.	.	.
.	4c	.	.
[2G	2B	.	.
=97	=97	=97	=97
2G]	1A	2r	1r
2F#i	.	1d	.
1G	1B	.	2r
.	.	2d	[2g
=98	=98	=98	=98
0r	1c	2e	2g]
.	.	1c	2g
.	2r	.	2a
.	2G	2B	2g
=99	=99	=99	=99
2r	2A	1c	2.e
1A	1c	.	.
.	.	.	4d
.	.	1r	4e
.	.	.	4f
2E	4B	.	2g
.	4A	.	.
=100	=100	=100	=100
1G	1B	0r	2d
.	.	.	1g
1D	2A	.	.
.	[2d	.	2f
=101	=101	=101	=101
0r	4d]	1r	2g
.	4c	.	.
.	1c	.	2e
.	.	1G	2.d
.	2B	.	.
.	.	.	4e
=102	=102	=102	=102
2r	1c	2A	2f
1A	.	1c	2e
.	1r	.	2r
2E	.	4B	[2e
.	.	4A	.
=103	=103	=103	=103
1G	2r	2.B	2e]
.	2G	.	2d
.	.	4c	.
1D	1A	1d	1f
=104	=104	=104	=104
1r	1c	2r	4e
.	.	.	4f
.	.	1e	4g
.	.	.	4a
1G	1B	.	4b
.	.	.	4cc
.	.	2d	[2dd
=105	=105	=105	=105
2D	2r	1f	4dd]
.	.	.	4cc
2F	1A	.	2.cc
2.C	.	[1e	.
.	.	.	4b
.	2G	.	4cc
4D	.	.	8bL
.	.	.	8aJ
=106	=106	=106	=106
[0E	1c	1e]	1g
.	[1B	2r	2r
.	.	[2e	[2g
=107	=107	=107	=107
0E]	0B]	2e]	2g]
.	.	2e	2g
.	.	2e	2g
.	.	2e	2g
=108	=108	=108	=108
0r	0r	2d	2a
.	.	2c	2cc
.	.	1d	2b
.	.	.	[2a
=109	=109	=109	=109
1.E	1.B	0e	2a]
.	.	.	4g
.	.	.	4f
.	.	.	[1g
2E	2B	.	.
=110	=110	=110	=110
2E	2B	0r	1g]
2E	2G	.	.
2D	2A	.	1r
4C	[2c	.	.
4D	.	.	.
=111	=111	=111	=111
4E	2c]	0r	2r
4F	.	.	.
2G	4B	.	1g
.	4A	.	.
2E	2B	.	.
2A	2c	.	2a
=112	=112	=112	=112
2G	2d	2r	2b
2E	2e	1c	2g
1F	2.A	.	1a
.	.	2d	.
.	4B	.	.
=113	=113	=113	=113
1C	1c	2e	2g
.	.	2c	2cc
1r	1r	1d	2b
.	.	.	[2a
=114	=114	=114	=114
0r	0r	2.c	2a]
.	.	.	4g
.	.	4d	4f
.	.	2e	2g
.	.	[2f	4a
.	.	.	4g
=115	=115	=115	=115
0r	2r	2f]	4a
.	.	.	4b
.	1A	1e	1cc
.	2B	2d	4b
.	.	.	4a
=116	=116	=116	=116
2r	2c	1e	1g
1C	2G	.	.
.	1A	1r	1r
2D	.	.	.
=117	=117	=117	=117
2E	2G	0r	0r
2C	2c	.	.
1D	2B	.	.
.	2A	.	.
=118	=118	=118	=118
2C	2.c	2r	0r
2F	.	1c	.
.	8BL	.	.
.	8AJ	.	.
2E	2G	.	.
2D	[2B	2d	.
=119	=119	=119	=119
2C	4B]	2e	0r
.	4A	.	.
2AA	1A	2c	.
1BB	.	1d	.
.	2G	.	.
=120	=120	=120	=120
1AA	1A	1c	2r
.	.	.	1a
1D	1F	2d	.
.	.	[2f	2b
=121	=121	=121	=121
2C	2r	2f]	2cc
2C	1c	1e	2g
1F	.	.	1a
.	2A	2d	.
=122	=122	=122	=122
2E	2B	1e	2g
2C	2c	.	1g
1D	1A	2.d	.
.	.	.	2f
.	.	4c	.
=123	=123	=123	=123
2.E	2G	2B	2.g
.	2c	2e	.
4F	.	.	4a
2G	2B	2d	2b
2E	2G	2e	[2cc
=124	=124	=124	=124
1F	1A	2c	4cc]
.	.	.	4b
.	.	2d	1a
1E	1B	1e	.
.	.	.	2g#i
=125	=125	=125	=125
*M3/1	*M3/1	*M3/1	*M3/1
*met(3)	*met(3)	*met(3)	*met(3)
0AA	0A	0c	0a
1r	1r	1r	1r
=126!|:	=126!|:	=126!|:	=126!|:
0E	0B	0e	0g
1E	1B	1e	1g
=127	=127	=127	=127
0G	0B	0d	0g
1G	1B	1e	1g
=128	=128	=128	=128
1F	1c	1f	1a
0D	0d	0f	0a
=129	=129	=129	=129
0E	0B	0e	0g
1r	1r	1r	1r
=130	=130	=130	=130
0A	0c	0e	0a
1G	1d	1g	1b
=131	=131	=131	=131
0C	1e	0g	0cc
.	1.c	.	.
[1E	.	1e	[1g
.	2B	.	.
=132	=132	=132	=132
1E]	0B	0e	1g]
0F	.	.	0a
.	1A	1d	.
=133	=133	=133	=133
1E	1B	0e	1.g
2C	0c	.	.
2D	.	.	2f
2E	.	1e	2g
2F	.	.	2a
=134	=134	=134	=134
1G	1B	1d	1b
1E	1G	1e	1.cc
[1F	[1A	1c	.
.	.	.	2b
=135	=135	=135	=135
1F]	1A]	1d	0a
0E	0B	0e	.
.	.	.	1g#i
=136	=136	=136	=136
0.AAl	0.Al	0.cl	0.al
=137:|!	=137:|!	=137:|!	=137:|!
*-	*-	*-	*-
!!!system-decoration: s1,s2,s3,s4
!!!RDF**kern: i = editorial accidental
!!!RDF**kern: l = terminal long
!!!ENC: David Nivarlet
!!!END: 2026/03/22
!!!EED: Benjamin Ory
!!!EEV: 2026/06/15
!!!YEC: Copyright 2026 Benjamin Ory, All Rights Reserved
!!!ONB: Translated from MusicXML on 2026/06/15
!!muse2ps: C^@{COM}^i2I150v90,90,90,120c120z18l2770t130
